X: 38099
T: Spoils Of Victory, The
R: hornpipe
M: 4/4
K: Gmajor
|:BA|GABc dedB|cdef gedc|BGBd gdBG|(3ABA (3GFG D2 FA|
GABc dedB|cdef gedc|BGBd cAFA|G2 B2 G2:|
|:AG|FGAB cdef|gafg efde|cdBc ABGA|(3FGF (3EFE (3DED FA|
GABc dedB|cdef gedc|BGBd cAFA|G2 B2 G2:|

